public/images/start.svg

<svg xmlns:xlink="http://www.w3.org/1999/xlink" xmlns="http://www.w3.org/2000/svg" width="12" height="12" viewBox="0 0 12 12" fill="none">
<g clip-path="url(#clip0)">
<path d="M11.9828 4.62238C11.9414 4.49509 11.8314 4.40233 11.699 4.38311L7.97896 3.84253L6.31525 0.471595C6.25605 0.351595 6.13382 0.275635 6.00002 0.275635C5.86619 0.275635 5.74399 0.351595 5.68476 0.471595L4.02099 3.84253L0.301004 4.38311C0.168606 4.40233 0.058567 4.49509 0.0172234 4.62236C-0.0241436 4.74965 0.0103562 4.88936 0.106192 4.98276L2.79793 7.60667L2.16259 11.3117C2.13995 11.4436 2.19418 11.5769 2.30244 11.6556C2.36368 11.7001 2.43622 11.7227 2.50911 11.7227C2.56508 11.7227 2.62124 11.7094 2.67266 11.6823L6 9.93299L9.32719 11.6823C9.44567 11.7446 9.58918 11.7342 9.69744 11.6556C9.80569 11.5769 9.85995 11.4436 9.83733 11.3117L9.20178 7.60667L11.8938 4.98273C11.9896 4.88936 12.0242 4.74965 11.9828 4.62238Z" fill="#F0F1EC"/>
</g>
<defs>
<clipPath id="clip0">
<rect width="12" height="12" fill="white"/>
</clipPath>
</defs>
</svg>

<svg xmlns="http://www.w3.org/2000/svg" width="12" height="12" fill="none"><g clip-path="url(#a)"><path fill="#F0F1EC" d="M11.983 4.622a.35.35 0 0 0-.284-.239l-3.72-.54L6.315.472a.352.352 0 0 0-.63 0L4.02 3.842l-3.72.541a.352.352 0 0 0-.195.6l2.692 2.624-.635 3.705a.352.352 0 0 0 .51.37L6 9.933l3.327 1.75a.352.352 0 0 0 .51-.371l-.635-3.705 2.692-2.624a.35.35 0 0 0 .089-.36"/></g><defs><clipPath id="a"><path fill="#fff" d="M0 0h12v12H0z"/></clipPath></defs></svg>
